X: 3
T: Red Prairie Dawn
C: Garry Harrison
R: reel
S: Audrey Knuth 2020-8-19
Z: 2020 John Chambers <jc:trillian.mit.edu>
M: C|
L: 1/8
K: A
|:\
"A"e3(c B2)A(B | cB)AE "D"F3(G | "A"A2)AF E(FAB) | c2(fc) ecBA || "A"e3(c B2)A(B | cB)AE "D"F3(G |
"A"A2)AF E(FAB) |"E"cABG "A"A2 [1 (Ac) :|[2 (AB) |: "F#m"c4 F4 | "D"A4 (C3B,) | "A"A,B,C(D EF)AB |
c2(fc) ecBA || "F#m"c4 F4 | "D"A4 (C3B,) | "A"A,B,C(D EF)AB |"E"cABG "A"A2 [1 (AB) :|2 "A"A4 |]
